X: 1
T: Alsinger sekstur  [G]
O: Danmark
R: jig
Z: John Chambers <jc:trillian.mit.edu>
M: 6/8
L: 1/8
R: jig
K: G
D | "G"G2G GBG | D2D D2D | GDG BGB | d2d d2B | "Am"cec "D7"A2A | "G"BdB "Em"G2G | "Am"AcA "D7"E2F | "G"G3- G2 |]
K: D
F | "A7"E2F G2A | "D"F2d d2F | "A7"E2A A2G | "D"FGE D2F | "A7"E2F G2A | "D"F2d d2F | "A7"E2A AEF | "D"D3- D2 |]
K: G
D | "G"B2B B=cA | "Em"G2G GAB | "Am"c2c cdB | "D7"A2A ABc | "G"d2d "Em"B2B | "Am"c2c "D7"A2A | "G"BGB "D7"dcA | "G"G3- G2 |]
